X: 32063
T: Pencarrow
R: waltz
M: 3/4
K: Cdorian
C2 G2 G2|G2 A2 B2|A2 F2 F2|F4 G2|
E2 E2 C2|D2 E2 F2|G2 C2 C2|B,4 GA|
B2 c2 B2|A2 G2 A2|B2 A2 G2|F4 C2|
G2 G2 G2|A2 A2 G2|F2 D2 E2|D4 CB,|
G2 G2 G2|G2 A2 B2|A2 G2 F2|F4 G2|
E2 D2 C2|D2 E2 F2|G2 c2 =B2|c4:|

